app/[lang]/(home)/(new-home)/assets/stacks-appicons/nextjs.svg

<svg width="16" height="16" viewBox="0 0 16 16" fill="none" xmlns="http://www.w3.org/2000/svg">
<g clip-path="url(#clip0_98_752)">
<mask id="mask0_98_752" style="mask-type:luminance" maskUnits="userSpaceOnUse" x="0" y="0" width="16" height="16">
<path d="M16 0.24646H0V15.7616H16V0.24646Z" fill="white"/>
</mask>
<g mask="url(#mask0_98_752)">
<path d="M11.8788 14.7932C11.8193 14.8237 11.8243 14.8334 11.8813 14.8053C11.8988 14.7983 11.9149 14.7883 11.9287 14.7757C11.9287 14.7655 11.9287 14.7655 11.8788 14.7932ZM11.9987 14.7301C11.9702 14.7529 11.9702 14.7529 12.0042 14.7379C12.0168 14.7322 12.0283 14.7245 12.0382 14.7151C12.0382 14.702 12.0302 14.7049 11.9987 14.7301ZM12.0767 14.6845C12.0482 14.7073 12.0482 14.7073 12.0822 14.6923C12.0948 14.6865 12.1063 14.6786 12.1162 14.669C12.1162 14.6569 12.1082 14.6593 12.0767 14.6845ZM12.1557 14.6395C12.1272 14.6622 12.1272 14.6622 12.1602 14.6467C12.1787 14.637 12.1942 14.6268 12.1942 14.6239C12.1942 14.6118 12.1862 14.6142 12.1557 14.6395ZM12.2622 14.5711C12.2077 14.6065 12.1887 14.6293 12.2387 14.6041C12.2722 14.5842 12.3292 14.5406 12.3192 14.5406C12.2977 14.5484 12.2802 14.5614 12.2622 14.5711ZM7.48118 0.251976C7.44468 0.2544 7.33518 0.264097 7.23918 0.271853C4.96541 0.471592 2.83811 1.65839 1.48973 3.48658C0.744583 4.48927 0.260226 5.65167 0.0778644 6.87485C0.0133703 7.30152 0.00537109 7.42753 0.00537109 8.0059C0.00537109 8.58379 0.0133703 8.70792 0.0778644 9.13453C0.513323 12.0487 2.65112 14.495 5.54883 15.4016C6.07028 15.563 6.61673 15.6745 7.23918 15.7429C7.48118 15.7681 8.52758 15.7681 8.76953 15.7429C9.84543 15.6266 10.7539 15.3691 11.6528 14.9245C11.7908 14.8567 11.8168 14.8387 11.7983 14.8237C11.3597 14.2616 10.9249 13.6968 10.4939 13.1293L9.21553 11.4553L7.61418 9.1549C7.08148 8.38467 6.54338 7.61803 5.99983 6.85497C5.99433 6.85497 5.98733 7.87742 5.98433 9.12435C5.97883 11.3084 5.97883 11.3971 5.95033 11.4476C5.92298 11.5084 5.87403 11.5578 5.81233 11.5867C5.76283 11.6094 5.71833 11.6143 5.48188 11.6143H5.21138L5.14088 11.5716C5.09673 11.5442 5.06088 11.5059 5.03688 11.4606L5.00288 11.3923L5.00538 8.35209L5.01088 5.31184L5.06038 5.25129C5.09203 5.214 5.13093 5.18321 5.17488 5.16062C5.24038 5.13007 5.26638 5.12523 5.53683 5.12523C5.85433 5.12523 5.90683 5.13735 5.99033 5.22607C6.63903 6.16169 7.28213 7.10089 7.91963 8.04372C8.95903 9.57182 10.3779 11.657 11.0753 12.6799L12.3437 14.5411L12.4062 14.5008C13.0158 14.108 13.5682 13.6376 14.0486 13.1021C15.0562 11.9837 15.7101 10.6074 15.9319 9.13793C15.9964 8.71131 16.0044 8.58477 16.0044 8.00687C16.0044 7.4285 15.9964 7.30491 15.9319 6.87824C15.4964 3.96412 13.3586 1.5178 10.4609 0.610728C9.91933 0.444405 9.36193 0.331202 8.79703 0.272823C8.64558 0.257794 7.61168 0.239856 7.48168 0.252946L7.48118 0.251976ZM10.7544 4.94341C10.7916 4.9611 10.8247 4.98588 10.8519 5.01618C10.8792 5.04649 10.8999 5.08173 10.9128 5.11989C10.9263 5.16062 10.9288 6.00367 10.9263 7.90263L10.9208 10.6292L10.4264 9.8923L9.92893 9.1549V7.17546C9.92893 5.89216 9.93443 5.17274 9.94143 5.13735C9.96593 5.05618 10.022 4.98748 10.0979 4.94583C10.1599 4.91529 10.1839 4.91286 10.4314 4.91286C10.6629 4.91286 10.7019 4.91529 10.7539 4.94341H10.7544Z" fill="white"/>
</g>
</g>
<defs>
<clipPath id="clip0_98_752">
<rect width="16" height="16" fill="white"/>
</clipPath>
</defs>
</svg>

<svg xmlns="http://www.w3.org/2000/svg" fill="none" viewBox="0 0 16 16">
  <g clip-path="url(#a)">
    <mask
      id="b"
      width="16"
      height="16"
      x="0"
      y="0"
      maskUnits="userSpaceOnUse"
      style="mask-type: luminance"
    >
      <path fill="#fff" d="M16 .25H0v15.51h16V.25Z" />
    </mask>
    <g mask="url(#b)">
      <path
        fill="#fff"
        d="M11.88 14.8c-.06.02-.06.03 0 0l.05-.02-.05.01Zm.12-.07c-.03.02-.03.02 0 0l.04-.01c0-.02-.01-.02-.04.01Zm.08-.05c-.03.03-.03.03 0 .01l.04-.02c0-.01-.01-.01-.04.01Zm.08-.04c-.03.02-.03.02 0 0 .02 0 .03-.01.03-.02l-.03.02Zm.1-.07c-.05.04-.07.06-.02.03l.08-.06-.06.03ZM7.48.25l-.24.02A8.07 8.07 0 0 0 1.49 3.5 7.55 7.55 0 0 0 .08 9.13a7.86 7.86 0 0 0 7.16 6.61 8.29 8.29 0 0 0 4.56-.92c-.44-.56-.88-1.12-1.3-1.7l-1.28-1.66-1.6-2.3L6 6.85l-.02 2.26c0 2.19 0 2.28-.03 2.33a.28.28 0 0 1-.14.14c-.05.02-.1.02-.33.02h-.27l-.07-.04a.3.3 0 0 1-.1-.1L5 11.38V8.35l.01-3.04.05-.06a.37.37 0 0 1 .11-.09c.07-.03.1-.03.37-.03.31 0 .37 0 .45.1a6735.87 6735.87 0 0 0 5.08 7.45l1.27 1.86.07-.04a8.1 8.1 0 0 0 1.64-1.4 7.62 7.62 0 0 0 1.88-6.22A7.86 7.86 0 0 0 8.8.28C8.65.25 7.6.23 7.48.24Zm3.27 4.7a.31.31 0 0 1 .16.17c.02.04.02.88.02 2.78v2.73l-.5-.74-.5-.74V7.18l.01-2.04a.33.33 0 0 1 .16-.2c.06-.02.08-.03.33-.03.23 0 .27 0 .32.03Z"
      />
    </g>
  </g>
  <defs>
    <clipPath id="a"><path fill="#fff" d="M0 0h16v16H0z" /></clipPath>
  </defs>
</svg>
